X:1
T:Stella caeli
T:John Thorne (c.1519-1573)
T:Composed in 1551 in thanksgiving for deliverance from the plague
T:Stella caeli
T:Motet
C:John Thorne (c.1519-1573)
Z:Composed in 1551 in thanksgiving
Z:for deliverance from the plague
%%score [ 1 2 3 ]
L:1/8
M:3/2
K:C
V:1 alto nm="P1"
V:2 tenor transpose=-12 nm="P2"
V:3 bass nm="P3"
V:1
 D12 |[M:4/4][K:treble] z8 | z4 D3 E | F2 E2 EF G2 | F2 z A2 AGE | G>G ^F4 z2 | z E2 E DB, D>D | %7
w: ||Stel- la|cae- li ex- tir- pa-|vit quae lac- ta- vit|Do- mi- num,|quae lac- ta- vit Do- mi-|
 A,2 z E2 DEF | GG F2 E2 z E- | EDEF GG F2 | E z z2 z2 z D | CFED>E^C D2 | z4 z EDG | ^FE>FD ^C4 | %14
w: num, Mor- tis pes- tem|quam plan- ta- vit, Mor-|* tis pes- tem quam plan- ta-|vit, pri-|mus Pa- rens ho- * mi- num,|pri- mus Pa-|rens ho- * mi- num,|
 z4 z E2 A | GEFG A2 G2 | z B,/B,/ CD EC B,2 | z D/D/ EF GE D2 | z4 z E2 D | FEGF A2 G2 | %20
w: Ip- sa|Stel- la nunc dig- ne- tur|si- de- ra com- pes- ce- re,|si- de- ra com- pes- ce- re|quo- rum|bel- la ple- bem ce- *|
 E2 z D EGFE | D/E/F/D/ E2 z DEG | ^FA GF/E/ G/F/E/D/ !fermata!^C2 ||[M:3/4] E2 E2 E2 | D2 C2 z2 | %25
w: dunt di- re mor- tis ul-|ce- * * * re, di- re mor-|tis ul- ce- * * * * * * re.|O glo- ri-|o- sa|
 G3 F D2 | E2 z2 E2 | G3 F DE | F3 E CD | E3 D CB, | C4 z2 | B,3 C DE | FG A2 GF | EF G2 FE | %34
w: Stel- la ma-|ris a|pes- te suc- cur-|re no- * *||bis,|Au- di nos nam|Fi- * * * *|* * * * li-|
 D4 z2 | EF G2 F2 | E2 D2 D2 | B,2 z2 z2 | EF G2 F2 | A2 ^F2 G2 | A6 ||[M:4/4] E3 E D>E FG | %42
w: us|ni- hil ne- gans|te ho- no-|rat,|ni- hil ne- gans|te ho- no-|rat.|Sal- ve nos _ Je- *|
 A4 !fermata!G4 || z4 F F2 E | D2 C2 z A A2 | G F2 E2 D G2 | F2 z2 z DB,C | DE F2 E2 z2 | %48
w: * su.|Pro- qui- bus|vir- go, pro- qui-|bus vir- * * *|go, ma- ter te|o- * * rat,|
 z2 z E CDEF | G2 FE E2 FD | E z z G EFGA- | A/G/B/A/ G A2 G A>G | F>E D2 E4 |] %53
w: ma- ter te o- *||rat, ma- ter te o- *||* * * rat.|
V:2
 G,12 |[M:4/4][K:treble-8] z2 G3 A B2 | A2 z2 Bcdc- | cB c3 B/A/ GA | B2 A2 z c2 c | %5
w: |Stel- la cae-|li ex- tir- pa- *||* vit quae lac-|
 BG B>B A2 z A- | AAGE G>G ^F2 | z A2 G A>B (cd) | dc d2 z A2 G | A>B cd (d^c) d2 | z AGc BA>BG | %11
w: ta- vit Do- mi- num, quae|_ lac- ta- vit Do- mi- num,|Mor- tis pes- tem quam _|plan- ta- vit, Mor- tis|pes- tem quam plan- ta- * vit,|pri- mus Pa- rens ho- * *|
 A2 G^F/G/ A/G/E F2 | z AGc BA>BG | A2 ^F2 A4 | z2 A3 cBA | Bc d2 c2 z E/G/ | FGAF E2 z G/G/ | %17
w: * * * * * * mi- num,|pri- mus Pa- rens ho- * *|* mi- num,|Ip- sa Stel- la|nunc dig- ne- tur si- de-|ra com- pes- ce- re, si- de-|
 ABcA G G2 F | AGBA c2 B2 | AcB d2 c z G | AcBA G/A/B/G/ Ac- | cB c2 A2 z G | %22
w: ra com- pes- ce- re quo- rum|bel- la ple- bem ce- *|* * * * dunt di-|re mor- tis ul- ce- * * * * *|* * * re, di-|
 AcBA>BG !fermata!A2 ||[M:3/4] G2 G2 G2 | A3 G AB | c4 B2 | c2 G4 | G2 B3 A | FG A3 G | EF GA BG | %30
w: re mor- tis ul- * ce- re.|O glo- ri-|o- sa Stel- la|ma- *|* ris|a pes- te|suc- cur- re no-||
 A2 E3 F | GA B4 | A2 ^FG AB | c6 | B2 z2 AB | c2 B3 A | A3 G BA | G2 Bc d2 | c2 B4 | A2 d4 | c6 || %41
w: bis, Au- di|nos nam Fi-||li-|us ni- hil|ne- gans te|ho- no- * *|rat, ni- hil ne-|gans te|ho- no-|rat.|
[M:4/4] z2 G3 GAB | c4 !fermata!B4 || z c c2 _B A2 G | F F2 E D2 FE | D2 A2 GABG | A2 z G EFGA | %47
w: Sal- ve nos _|Je- su.|Pro- qui- bus vir- go,|pro- qui- bus vir- * *||go, ma- ter te o- *|
 B c2 B c2 G2 | EF G2 AB c2 | B2 A2 z cAB | c2 B2 z dBc | d>c B>A B/c/B c2- | c2 B2 c4 |] %53
w: * * * rat, ma-|ter te- o- * * *|* rat, ma- ter te|o- rat ma- ter te|o- * * * * * * *|* * rat.|
V:3
 C,12 |[M:4/4] C,3 D, E,2 D,2 | z2 E,F, G,2 F,E, | D,2 z C,2 D, E,2 | D,2 z F,2 F,E,C, | %5
w: |Stel- la cae- li|ex- tir- pa- * *|vit, ex- tir- pa-|vit quae lac- ta- vit|
 E,>E, D,2 z D,2 D, | C,A,, C,>C, B,,2 z D,- | D,C,D,E, F,F,E,D, | E,2 D, D,2 C,D,E, | %9
w: Do- mi- num, quae lac-|ta- vit Do- mi- num, Mor|_ tis pes- tem quam plan- ta- *|* vit, Mor- tis pes- tem|
 F,F,(E,D,) E,2 D,D, | C,F, E,2 D,C, B,,2 | A,,>B,, C,D, A,,2 z D, | C,F, E,2 D,C, B,,2 | %13
w: quam plan- ta- * vit, pri- *|mus Pa- rens ho- * *|* * * mi- num, pri-|mus Pa- rens ho- * *|
 A,,C, B,,2 A,,4 | A,,3 D, C,A,,E,F, | E,2 D,2 z A,,/A,,/ B,,C, | D,B,, A,,2 z A,,/A,,/ D,E, | %17
w: * * mi- num,|Ip- sa Stel- la nunc dig-|ne- tur, si- de- ra com-|pes- ce- re, si- de- ra com-|
 F,D,C, z C,2 B,,D, | C,E,D,F, E,C, G,2 | D,C,E,D, F,2 E,2 | z C,D,F, E,2 D,C,/D,/ | %21
w: pes- ce- re quo- rum bel-|la ple- bem ce- * * *|* * * * * dunt|di- re mor- tis ul- ce- *|
 E,/C,/D, z C, D,F, E,2 | D,A,, D,2 B,,2 !fermata!A,,2 ||[M:3/4] C,2 C,2 C,2 | F,3 E, F,2 | %25
w: * * re, di- re mor- tis|ul- ce- * * re.|O glo- ri-|o- sa Stel-|
 E,2 D,4 | C,2 z2 C,2 | E,3 D, B,,C, | D,3 C, A,,B,, | C,D, E,4 | A,,3 B,, C,D, | E,3 D, B,,C, | %32
w: la ma-|ris a|pes- te suc- cur-|re no- * *|* * bis,|Au- di nos nam|Fi- * * *|
 D,6 | C,3 D, E,F, | G,2 D,E, F,2 | E,2 E,2 D,2 | C,2 B,,4 | E,F, G,2 F,2 | E,4 D,2 | C,2 B,,4 | %40
w: |* * * li-|us ni- hil ne-|gans te ho-|no- rat,|ni- hil ne- gans|te ho-|no- *|
 A,,6 ||[M:4/4] C,3 C, B,,2 A,,2- | A,,B,,C,D, !fermata!E,4 || F, F,2 E, D,2 C,2 | %44
w: rat.|Sal- ve nos Je-|* * * * su.|Pro qui- bus vir- *|
 D,2 A,,2 D, D,2 C, | _B,,2 A,,>B,, C,F, E,2 | z D,A,,B,, C,D,E,C, | G,E, D,2 z C,A,,B,, | %48
w: * go, pro qui- bus|vir- * * * * go,|ma- ter te o- * * *|* * rat, ma- ter te|
 C,D,E,C, F,E,/D,/ C,D, | E,2 A,,2 C,2 z G, | %50
w: o- * * * * * * * *|* * rat, ma-|
"^Source: \"A General History of the Science and Practice of Music\" by Sir John Hawkins, page 360in the 1853 edition. The value of notes has been quartered." E,F, G,2 C,D,E,C, | %51
w: ter te o- * * * *|
 B,,2 E,F, E,>D, C,/B,,/A,, | D,4 C,4 |] %53
w: |* rat.|

